X:76
T:Guy Mannering. HSJJ.078
M:6/8
L:1/8
Q:3/8=120
S:HSJ Jackson,Wyresdale,Lancs.1823
R:.Jig
O:England
A:Lancashire
H:1823
Z:vmp.Chris Partington.
K:D
A|d2d def|{ef}g2ec2A|d2BA2F|d2B AFD|!
d2d def|{ef}g2ec2A|d2BA2F|~E>DED2:|!
|d|e2e efg|{ef}a2fd2A|dBG AFD|dBG (Af).f|!
e2e efg|{ef}a2fd2B|cBA ~G>FE|A3-A” DC”Bc|]

